X: 101
T: Sixpenny Money
R: jig
Z: 2012 John Chambers <jc@trillian.mit.edu>
B: "100 Essential Irish Session Tunes" 1995 Dave Mallinson, ed.
M: 6/8
L: 1/8
K: D
|:\
"D"fAA fAA | "Em"BAG "A7"FGE | "D"DED AFA | "D"dfd "A7"ede |\
"D"fAA fAA | "Em"BAG "A7"FGE | "D"DED AFA | "D"dfd "A7"e2d :|
|:\
"D"fef "A7"gfg | "D"afd "Em"ede | "D"fef "G"gfg | "D"afd "A7"e2d |\
"D"fef "Em"gfg | "D"afd "Em"edB | "D"ABA AFA | "D"dfd "A7"e2d :|

%%sep 2 1 500
%%sep 1 1 500

